X:1
T:II. Youth and Love
T:II. Youth and Love
T:Songs of Travel
T:Ralph Vaughan Williams
T:R.L. Stevenson
C:Ralph Vaughan Williams
Z:R.L. Stevenson
%%score 1 { ( 2 4 6 ) | ( 3 5 ) }
L:1/8
Q:1/4=55
M:3/4
K:G
V:1 treble nm="Voice"
V:2 treble nm="Piano"
V:4 treble 
V:6 treble 
V:3 treble 
V:5 treble 
V:1
"^Andante sostenuto" z6 | z6 | z6 | z6 | z6 | z2!p! (D3 D | B4 A2 | G3) (D G2- | G4 G A | %9
w: |||||To the|heart of|youth the world|_ is a|
!<(! B2!<)!!>(! c2!>)! B2) | z2 d2!<(! d2- | d d!<)! e2 e2- | e e B4- | B2 z2 (B B | %14
w: high- way side.|Pass- ing|_ for ev- er|_ he fares|_ and on|
!>(! B4!>)! B2 |!pp! c4) (!>!G2- | (3G G G G3 G) | (3G G G G3 G | G4 (3(C C C | c3 c G2-) | %20
w: ei- ther|hand, Deep|_ in the gar- dens|gol- den pav- il- lions|hide, Nes- tle in|or- chard bloom,|
 G2 z2!pp! z"^misterioso" (_B | _B2- (3B B B B2- | B _B B4) |!mf!!<(! (=B4!<)! c2 | %24
w: * and|far _ on the lev-|* el land|Call him|
 z B (3((AB) A) D2- | D6) | z2!p! (G3 G | d6- |!>(! d4!>)! D2 | D6) | z6 | z6 | %32
w: with light- * ed lamp|_|in the|ev-|* en-|tide.|||
[Q:1/4=60]"^Poco animato" z2 (^G3 G | ^G4- G G | B4 B) (B |!>(! B3!>)! F F2) | z2 (A2 A A | %37
w: Thick as|stars _ at|night when the|moon is down|Plea- sures as-|
 c2 A4) | z2!f!"^risoluto" B3 A/ G/ | d3!<(! d B2!<)! |!<(! e4-!<)! e z | %41
w: sail him.|He to his|no- bler fate|Fares; _|
 (3z"^affrettando"[Q:1/4=70]"^T" (G G G3 G | G2- (3G G G G G |!<(! G6)!<)! || %44
w: and but waves a|hand- * as he pas- ses|on,|
[M:4/4]!ff![Q:1/4=77]"^Più mosso"[Q:1/4=77]"^Più mosso" (d8- | d4 c2 B2) | B4 B4 | c3 c c4- | %48
w: Cries|_ but a|way- side|word to her|
 (3c2 c2 d2 (3(c2 B2) A2 | B6 z2 | z8 |[Q:1/4=77]"^Più mosso"[Q:1/4=77]"^Più mosso" z4!pp! A4- | %52
w: _ at the gar- * den|gate,||Sings|
 A4 A2 A2 | _B6 B2 |[Q:1/4=65]"^rall."[Q:1/4=77]"^rall." _B6 z2 || %55
w: _ but a|boy- ish|stave|
[M:3/4][Q:1/4=55]"^Tempo I." z2 (G3 G | B4 G2 | d6) | z2 z2 z!pp! D |!>(! D6- | %60
w: and his|face is|gone,|is|gone.|
 D6-!>)![Q:1/4=53]"^T"[Q:1/4=50]"^T" |[Q:1/4=48]"^T" D4 z2[Q:1/4=45]"^T"[Q:1/4=42]"^T" | z6 |] %63
w: _|||
V:2
 [Bd]!p![Bd][Bd][Bd] (3(.[Ad].[Ad].[Ad]) | [Bd][Bd][Bd][Bd] (3(.[cd].[Bd].[cd]) | %2
 [Bd][Bd] (3(.[Ad].[Bd].[Ad]) [Bd][Bd] | (3(.[cd].[Bd].[cd]) [Bd][Bd] (3(.[Ae].[Be].[Ae]) | %4
 [Bd][Bd] (3(.[Ae].[Be].[Ae]) [Bd][Bd] | (3(.[Ae].[Be].[Ae]) [Bd][Bd][Bd][Bd] | %6
 [Bd][Bd][Bd][Bd] (3(.[Ad].[Bd].[Ad]) | [Bd][Bd][Bd][Bd] (3(.[cd].[Bd].[cd]) | %8
 [Bd][Bd][Bd][Bd] (3(.[Ae].[Be].[Ae]) | [Bd][Bd] (3(.[Ae].[Be].[Ae]) [Bd][Bd] | %10
 [Bd][Bd] (3(.[Ad].[Bd].[Ad]) [Gd][Gd] | (3(.[Fd].[Gd].[Fd]) (3:2:2eg/(3:2:2bb/!>(! b2!>)! | %12
!p! (3(.[Bfb].[Beb].[Bfb]) [Bgb][Bgb] (3(.[cab].[Bgb].[cab]) | %13
 [Bgb][Bgb] (3(.[Bfb].[Beb].[Bfb]) [Bgb][Bgb] | (3(.[cab].[Bab].[cab]) [Bgb][Bgb][Bfb][Bfb] | %15
!pp! [egc'][egc'] (3(.d.e.d) [ceg][ceg] | %16
 (3(.[Gdg].[Gcg].[Gdg]) [egc'][egc'] (3(.[dgc'].[egc'].[dgc']) | %17
 [ceg][ceg] (3(.[dg].[cg].[dg]) [egc'][egc'] | %18
 (3(.[dgc'].[egc'].[dgc']) [egc'][egc'] (3(.[Gcg].[Gcg].[Gcg]) | %19
 [Gc][Gc] (3[=FGc][FGc][FGc] [EG][EG] | %20
 (3(.[_EG].[E=F].[EG] (3.[EG].[EF].[EG])!pp! (3([_G_B]"^misterioso"[FB][GB] | %21
 [=F_B][_EB]) (3([_GB][FB][GB] [FB][EB]) | (3[_G_B][=FB][GB] [FB][_EB] [FB][EB] | %23
!mf! [D=Bd]!<(![DBd][DBd][DBd]!<)! (3(.[Dcd].[DBd].[Dcd]) | [DBd][DBd] (3(.[DAd].[DBd].[DAd]) DD | %25
"_dim." (3(.[DE].D.[DE]) [DG][DG] (3(.[DE].D.[DE]) | [DG][DG] (3(.[DE].D.[DE] (3.[DE].D.[DE]) | %27
!p!"_dim." [B,D][B,D][B,D][B,D] (3(.[A,D].[B,D].[A,D]) | %28
 [B,D][B,D] (3(.[CD].[B,D].[CD]) [B,D][B,D] | %29
 (3(.[A,D].[B,D].[A,D]) [B,D][B,D] (3(.[A,D].[B,D].[A,D]) | %30
 [B,D][B,D] (3(.[A,D].[B,D]!>(!.[A,D]) [B,D][B,D]- | [B,D] [B,D]2 [B,D]-!>)! [B,D]2 | %32
!pp! [be']2 [^gb]2 g2 | e2 [B^c]2 [^GB]2 | [df]2 [Bd]2 [^GB]2 | [FB]2 [DF]2 [B,D]2 | %36
 [=ce]2 [ce]2 [Ac]2 | [FA]2 [EF]2 [CE]2 |!f!"^risoluto" (3:2:2eg/(3:2:2bb/ ([eb]4 | %39
 (b)[dd']/[Bb]/ [Bb]/[Aa]/[Gg]/[Aa]/) ([Bb][=d=d']/[Bb]/ | %40
 [Bb]/[Aa]/[Gg]/[Aa]/) ([Bb][dd']/[Bb]/ [Bb]/[Aa]/[Gg]/[Aa]/) | %41
!f! [Bdgb][GBg]"_cresc." [GBg][GBg] (3[Acg][GBg][Acg] | [Bdg][Bdg] (3[Acg][Bdg][Acg] [GBg][GBg] | %43
 (3[Acg][Bdg][Acg]!<(! [GBg][GBg] (3[G^cg]!<)![GBg][Gcg] || %44
[M:4/4]!ff! ([dgbd']3 [ee'] [dd']2 [Bb]2) | [Gg]2 [Bb]4 [dd']2 | [ee']3 [ff'] [ee']2 [Bb]2 | %47
 [cegc']8 | ([cfc']3 [dd'] (3[cfc']2 [Bb]2 [Aa]2) | ([Bb]3 [cc'] (3[Bb]2 [Aa]2 [Gg]2) | %50
 ([Aa]3 [Bb]!>(! (3[Aa]2 [Gg]2 [Ff]2)!>)! |!pp! [a=f']3 [_bg'] [af']2 [gd']2 | %52
 [=fc'][da][cg][Af] [cg][da][fc'][ad'] | [g_e']3 [_a=f'] [ge']2 [=fc']2 | %54
 ([_e_b][cg][_B=f][Ge] [=FB][_EG][FB][Gc]) ||[M:3/4] [=Bd][Bd][Bd][Bd] (3DGD | %56
 [Bd][Bd][Bd][Bd] (3GDG | [Bd][Bd] (3DGD [Bd][Bd] | %58
 (3DG!>(!D [Bd]!>)![Bd][K:bass]!pp! (3(.[A,D].[B,D].[A,D]) | %59
 [B,D][B,D] (3(.[A,D].[B,D].[A,D]) [B,D][B,D] | %60
"_sempre rall e dim." (3(.[A,D].[B,D].[A,D]) [B,D][B,D] (3(.[A,D].[B,D].[A,D]) | %61
 [B,D]3 [A,D]2 [B,D]- | [B,D]6 |] %63
V:3
 [DG][DG][DG][DG] (3(.[CG].[CG].[CG]) | [DG][DG][DG][DG] (3(.[EG].[EG].[EG]) | %2
 [DG][DG] (3(.[CG].[CG].[CG]) [DG][DG] | (3(.[EG].[EG].[EG]) [DG][DG] (3(.[CG].[CG].[CG]) | %4
 [DG][DG] (3(.[CG].[CG].[CG]) [DG][DG] | (3(.[CG].[CG].[CG]) [DG][DG][DG][DG] | %6
 [DG][DG][DG][DG] (3(.[CG].[CG].[CG]) | [DG][DG][DG][DG] (3(.[EG].[EG].[EG]) | %8
 [DG][DG][DG][DG] (3(.[CG].[CG].[CG]) | [DG][DG] (3(.[CG].[CG].[CG]) [DG][DG] | %10
 [DG][DG] (3(.[CG]!<(!.[CG].[CG]) [B,D][B,D] | %11
 (3(.[A,C].[A,C].[A,C])!<)!!f! [G,B,E][G,B,E][G,B,E][G,B,E] | %12
 (3(.[A,F].[A,F].[A,F]) [B,G][B,G] (3(.[CA].[CA].[CA]) | %13
 [DG][DG] (3(.[A,F].[A,F].[A,F]) [B,G][B,G] | (3(.[CA].[CA].[CA]) [B,G][B,G][A,F][A,F] | %15
[K:bass] [G,E][G,E] (3(.G,.G,.G,) [G,C][G,C] | (3(.G,.G,.G,) [G,CE][G,CE] (3(.[G,D].[G,E].[G,D]) | %17
 [G,CE][G,CE] (3(.[G,D].[G,C].[G,D]) [G,CE][G,CE] | %18
 (3(.[G,D].[G,E].[G,D]) [G,E][G,E] (3(.[=F,C].[G,C].[F,C]) | %19
 [E,C][E,C] (3[D,C][E,C][D,C] [C,G,][C,G,] | %20
 (3(.[_C,_E,G,].[C,E,=F,].[C,E,G,] (3.[C,E,G,].[C,E,F,].[C,E,G,]) (3([_B,,_G,][B,,F,][B,,G,] | %21
 [_B,,=F,][B,,_E,]) (3([B,,_G,][B,,F,][B,,G,] [B,,F,][B,,E,]) | %22
 (3[_B,,_G,][B,,=F,][B,,G,] [B,,F,][B,,_E,] [B,,F,][B,,E,] | %23
 [D,G,=B,][D,G,B,][D,G,B,][D,G,B,] (3(.[E,G,C].[E,G,C].[E,G,C]) | %24
 [D,G,B,][D,G,B,] (3(.[C,G,A,].[C,G,B,].[C,G,A,]) [B,,G,][B,,G,] | %25
 (3(.[C,G,].[C,G,].[C,G,]) [B,,G,][B,,G,] (3(.[C,G,].[C,G,].[C,G,]) | %26
 [B,,G,][B,,G,]!<(! (G,3!<)! A,) | D,[D,G,][D,G,][D,G,] (3(.[C,G,].[C,G,].[C,G,]) | %28
 [D,G,][D,G,] (3(.[E,G,].[E,G,].[E,G,]) [D,G,][D,G,] | %29
 (3(.[C,G,].[C,G,].[C,G,]) [D,G,][D,G,] (3(.[C,G,].[C,G,].[C,G,]) | %30
 [D,G,][D,G,] (3(.[C,G,].[C,G,].[C,G,]) [D,G,][D,G,]- | [D,G,] [D,G,]2 [D,G,]- [D,G,]2 | %32
!ped! (E,,B,,E,^G,B,E | ^GEB,^G,E,B,,)!ped-up! |!ped! (B,,,F,,B,,D,F,B, | DB,F,D,B,,B,,,)!ped-up! | %36
!ped! (A,,,E,,A,,E,A,C | ECA,E,A,,A,,,)!ped-up! | [^C,,^C,]6[K:treble] | %39
 (!///-![=CD]2 F2) (!///-![B,^D] G) | (!///-![A,E] F) (!///-![G,B,] E) (!///-![F,A,] E) | %41
[K:bass] [=F,G,B,D]"^affrettando"[F,G,B,D][F,G,B,D][F,G,B,D] (3[E,A,C][E,A,C][E,A,C] | %42
 [D,=F,B,][D,F,B,] (3[E,G,C][E,G,C][E,G,C] [F,B,D][F,B,D] | %43
 (3[E,G,C][E,G,C][E,G,C] [=F,B,D][F,B,D] (3[E,G,B,^C][E,G,B,C][E,G,B,C] || %44
[M:4/4]!ff! z2 (!///-![D,G,] B, !///-![D,G,]2 B,2) | !///-![D,E,G,]2 B,2 !///-![D,E,G,]2 B,2 | %46
 z2 !///-![D,G,] B, !///-![D,G,]2 B,2 | z2 !///-![E,G,] C !///-![E,G,]2 C2 | %48
 z2 !///-![D,F,] C !///-![D,F,]2 C2 | z2 !///-!G, B, !///-![E,G,]2 B,2 | %50
 z2 !///-![C,E,] A, z2 !///-![B,,^D,] A, |!ped! [C,=F,A,]8- | [C,F,A,]8 | %53
!ped! [_B,,_E,G,_B,]8-!ped-up! | [B,,E,G,B,]6- [B,,E,G,B,][C,_E,G,C] || %55
[M:3/4] [D,G,=B,][D,G,B,][D,G,B,][D,G,B,] (3(.[C,G,A,].[C,G,A,].[C,G,A,]) | %56
 [D,G,B,][D,G,B,][D,G,B,][D,G,B,] (3(.[C,G,A,].[C,G,A,].[C,G,A,]) | %57
 [D,G,B,][D,G,B,] (3(.[C,G,A,].[C,G,A,].[C,G,A,]) [D,G,B,][D,G,B,] | %58
 (3(.[C,G,A,].[C,G,A,].[C,G,A,]) [D,G,B,][D,G,B,] (3(.[C,G,].[C,G,].[C,G,]) | %59
 [D,G,][D,G,] (3(.[C,G,].[C,G,].[C,G,]) [D,G,][D,G,] | %60
 (3(.[C,G,].[C,G,].[C,G,]) [D,G,][D,G,] (3(.[C,G,].[C,G,].[C,G,]) | [D,G,]3 [C,G,]2 [D,G,]- | %62
 [D,G,]6 |] %63
V:4
 x6 | x6 | x6 | x6 | x6 | x6 | x6 | x6 | x6 | x6 | x6 | x2 [Be][Be] [Be][Be] | x6 | x6 | x6 | %15
 x2 [gc']2 x2 | x6 | x6 | x6 | x6 | x6 | x6 | x6 | x6 | x6 | x6 | x6 | x6 | x6 | x6 | x6 | x6 | %32
 (3(^gfg (3e^de (3^cBc | (3B^cB (3^GFG (3EFE) | (3(bab (3^gfg (3fef | (3d^cd (3BAB (3^GFG) | %36
 (3(bab (3aga (3fef | (3ede (3cBc (3ABA) | [Be] (3:2:2ee/ x4 | f4 [^dg]2 | e2 e2 e2 | x6 | x6 | %43
 x6 ||[M:4/4] x8 | x8 | x8 | x8 | x8 | f4 e4 | e4 ^d4 | x8 | x8 | x8 | x8 || %55
[M:3/4] x4 (3(.[Ad].[Bd].[Ad]) | x4 (3(.[cd].[Bd].[cd]) | GG (3(.[Ad].[Bd].[Ad]) GG | %58
 (3(.[Ad].[Bd].[Ad]) x2[K:bass] x2 | x6 | x6 | x6 | x6 |] %63
V:5
 x6 | x6 | x6 | x6 | x6 | x6 | x6 | x6 | x6 | x6 | x6 | x6 | x6 | x6 | x6 |[K:bass] x2 (3DED x2 | %16
 (3DCD x4 | x6 | x6 | x6 | x6 | x6 | x6 | x6 | x6 | x6 | x2 C,4 | x6 | x6 | x6 | x6 | x6 | x6 | %33
 x6 | x6 | x6 | x6 | x6 | z[K:treble] !//-![^CEG]/B/ !///-![CEG]2 B2 | x6 | x6 |[K:bass] x6 | x6 | %43
 x6 ||[M:4/4] [D,,,D,,]8 | x8 | [B,,,B,,]8 | [B,,,B,,]8 | [A,,,A,,]8 | [G,,,G,,]8 | %50
 [F,,,F,,]4 [B,,,B,,]4 | x8 | x8 | x8 | x8 ||[M:3/4] x6 | x6 | x6 | x6 | x6 | x6 | x6 | x6 |] %63
V:6
 x6 | x6 | x6 | x6 | x6 | x6 | x6 | x6 | x6 | x6 | x6 | x6 | x6 | x6 | x6 | x6 | x6 | x6 | x6 | %19
 x6 | x6 | x6 | x6 | x6 | x6 | x6 | x6 | x6 | x6 | x6 | x6 | x6 | x6 | x6 | x6 | x6 | x6 | x6 | %38
 x6 | x6 | x6 | x6 | x6 | x6 ||[M:4/4] x8 | x8 | x8 | x8 | x8 | x8 | x8 | x8 | x8 | x8 | x8 || %55
[M:3/4] GGGG x2 | GGGG x2 | x6 | x2 GG[K:bass] x2 | x6 | x6 | x6 | x6 |] %63

